X:1
T:Roseate Hues, CMD
T:Roseate Hues, CMD
T:Joseph Barnby (1838-1896)
T:Public Domain Courtesy of the Cyber Hymnal™
C:Joseph Barnby (1838-1896)
Z:Public Domain
Z:Courtesy of the Cyber Hymnal™
%%score ( 1 2 ) ( 3 4 )
L:1/8
Q:1/4=110
M:4/4
K:E
V:1 treble 
V:2 treble 
V:3 bass 
V:4 bass 
V:1
 [GB]2 | [GB]2 [FA]2 [B,G]2 [B,G]2 | [CG]2 [DF]2 E2 E2 | [CA]2 [FA]2 [FA]2 (GF) | [EG]6 [B,G]2 | %5
 [CF]2 [CF]2 [FB]2 [^^F^A]2 | [^^F^A]3 G G2 [CG]2 | [DF]2 [FB]2 [FB]2 [F^A]2 | [FB]6 [FB]2 | %9
 [EB]3 [EB] [^EA]2 [EG]2 | F2 [^EG]2 [FA]2 [FA]2 | [F=d]3 [Fd] [Ec]2 [EB]2 | [Ec]6 [Ec]2 | %13
 [DF]3 [DF] [EG]2 [EA]2 | [EB]2 [Ee]2 [Fd]2 [Ec]2 | [EB]2 E2 [EG]2 [DF]2 | E6 |] %17
V:2
 x2 | x8 | x4 E2 E2 | x6 D2 | x8 | x8 | x3 G G2 x2 | x8 | x8 | x8 | F2 x6 | x8 | x8 | x8 | x8 | %15
 x2 E2 x4 | E6 |] %17
V:3
 [E,B,]2 | [E,C]2 [E,D]2 [E,E]2 [G,,B,]2 | [A,,B,]2 [B,,A,]2 [C,G,]2 [C,G,]2 | %3
 F,2 [E,C]2 [D,B,]2 [B,,B,]2 | [E,B,]6 [E,B,]2 | [E,B,]2 [E,^A,]2 [D,B,]2 [D,C]2 | %6
 [E,C]3 [E,B,] [E,B,]2 [^E,B,]2 | [F,B,]2 (CD) [F,C]2 [F,E]2 | [B,D]6 [B,D]2 | %9
 [G,E]3 [G,B,] C2 [B,C]2 | [A,C]2 [G,C]2 [F,C]2 [F,C]2 | B,2 z [E,G,]2 [E,G,]2 x | %12
 [A,,A,]6 [A,,A,]2 | [A,B,]3 [A,B,] [G,B,]2 [F,B,]2 | [G,B,]2 [G,,B,]2 [A,,^B,]2 [A,,C]2 | %15
 [B,,G,]2 [C,A,]2 [B,,B,]2 [B,,A,]2 | [E,G,]6 |] %17
V:4
 x2 | x8 | x8 | F,2 x6 | x8 | x8 | x8 | x2 F,2 x4 | x8 | x4 C2 x2 | x8 | B,,3 (A,2 B,,) x2 | x8 | %13
 x8 | x8 | x8 | x6 |] %17

